svgs/instagram.svg

<svg width="192" height="192" viewBox="0 0 192 192" fill="none" xmlns="http://www.w3.org/2000/svg">
<path d="M96 162C81.848 162 71.664 161.993 63.7235 161.223C55.8754 160.462 50.8538 159 46.8468 156.482C42.2675 153.605 38.3953 149.732 35.5179 145.153C33.0002 141.146 31.5378 136.125 30.7767 128.276C30.0066 120.336 30 110.152 30 96C30 81.848 30.0066 71.664 30.7767 63.7235C31.5378 55.8754 33.0002 50.8538 35.5179 46.8468C38.3953 42.2675 42.2675 38.3953 46.8468 35.5179C50.8538 33.0002 55.8754 31.5378 63.7235 30.7767C71.664 30.0066 81.848 30 96 30C110.152 30 120.336 30.0066 128.276 30.7767C136.125 31.5378 141.146 33.0002 145.153 35.5179C149.732 38.3953 153.605 42.2675 156.482 46.8468C159 50.8538 160.462 55.8754 161.223 63.7235C161.993 71.664 162 81.848 162 96C162 110.152 161.993 120.336 161.223 128.276C160.462 136.125 159 141.146 156.482 145.153C153.605 149.732 149.732 153.605 145.153 156.482C141.146 159 136.125 160.462 128.276 161.223C120.336 161.993 110.152 162 96 162Z" stroke="black" stroke-width="12"/>
<circle cx="96" cy="96" r="30" stroke="black" stroke-width="12"/>
<circle cx="135" cy="57" r="9" fill="black"/>
</svg>

<svg xmlns="http://www.w3.org/2000/svg" width="192" height="192" fill="none" xmlns:v="https://vecta.io/nano"><g stroke="#000" stroke-width="12"><path d="M96 162c-14.152 0-24.336-.007-32.276-.777-7.848-.761-12.87-2.223-16.877-4.741a36 36 0 0 1-11.329-11.329c-2.518-4.007-3.98-9.028-4.741-16.877C30.007 120.336 30 110.152 30 96s.007-24.336.777-32.276c.761-7.848 2.223-12.87 4.741-16.877a36 36 0 0 1 11.329-11.329c4.007-2.518 9.029-3.98 16.877-4.741C71.664 30.007 81.848 30 96 30s24.336.007 32.276.777c7.849.761 12.87 2.223 16.877 4.741a36 36 0 0 1 11.329 11.329c2.518 4.007 3.98 9.029 4.741 16.877.77 7.941.777 18.124.777 32.277s-.007 24.336-.777 32.276c-.761 7.849-2.223 12.87-4.741 16.877a36 36 0 0 1-11.329 11.329c-4.007 2.518-9.028 3.98-16.877 4.741-7.94.77-18.124.777-32.276.777z"/><circle cx="96" cy="96" r="30"/></g><circle cx="135" cy="57" r="9" fill="#000"/></svg>
